src/assets/imgs/icons/wallet/ic_import.svg

<?xml version="1.0" encoding="UTF-8"?>
<svg width="16px" height="16px" viewBox="0 0 16 16" version="1.1" xmlns="http://www.w3.org/2000/svg" xmlns:xlink="http://www.w3.org/1999/xlink">
    <!-- Generator: Sketch 50.2 (55047) - http://www.bohemiancoding.com/sketch -->
    <title>ic_import</title>
    <desc>Created with Sketch.</desc>
    <defs></defs>
    <g id="Page-1" stroke="none" stroke-width="1" fill="none" fill-rule="evenodd">
        <g id="00A_Export" transform="translate(-143.000000, -88.000000)">
            <g id="ic_import" transform="translate(143.000000, 88.000000)">
                <rect id="Guide" fill-opacity="0" fill="#FFFFFF" x="0" y="0" width="16" height="16"></rect>
                <path d="M13.5,1 C14.327,1 15,1.673 15,2.5 L15,13.5 C15,14.327 14.327,15 13.5,15 L2.5,15 C1.673,15 1,14.327 1,13.5 L1,11.5 C1,11.224 1.224,11 1.5,11 C1.776,11 2,11.224 2,11.5 L2,13.5 C2,13.775 2.224,14 2.5,14 L13.5,14 C13.776,14 14,13.775 14,13.5 L14,2.5 C14,2.225 13.776,2 13.5,2 L2.5,2 C2.224,2 2,2.225 2,2.5 L2,4.5 C2,4.776 1.776,5 1.5,5 C1.224,5 1,4.776 1,4.5 L1,2.5 C1,1.673 1.673,1 2.5,1 L13.5,1 Z M1,8 C1,7.724 1.224,7.5 1.5,7.5 L9.293,7.5 L7.646,5.854 C7.451,5.658 7.451,5.342 7.646,5.146 C7.842,4.951 8.158,4.951 8.354,5.146 L10.853,7.646 C10.899,7.692 10.936,7.748 10.961,7.809 C11.012,7.932 11.012,8.068 10.961,8.191 C10.936,8.252 10.899,8.308 10.853,8.354 L8.354,10.854 C8.256,10.951 8.128,11 8,11 C7.872,11 7.744,10.951 7.646,10.854 C7.451,10.658 7.451,10.342 7.646,10.146 L9.293,8.5 L1.5,8.5 C1.224,8.5 1,8.276 1,8 Z" id="Combined-Shape" fill="#FF8737"></path>
                <rect id="Overlay" fill="#FFFFFF" opacity="0" x="0" y="0" width="16" height="16"></rect>
            </g>
        </g>
    </g>
</svg>

<?xml version="1.0" encoding="utf-8"?>
<!-- Generator: Adobe Illustrator 23.0.1, SVG Export Plug-In . SVG Version: 6.00 Build 0)  -->
<svg version="1.1" id="图层_1" xmlns="http://www.w3.org/2000/svg" xmlns:xlink="http://www.w3.org/1999/xlink" x="0px" y="0px"
	 viewBox="0 0 16 16" style="enable-background:new 0 0 16 16;" xml:space="preserve">
<style type="text/css">
	.st0{fill-rule:evenodd;clip-rule:evenodd;fill:#ECBA6F;}
	.st1{fill-rule:evenodd;clip-rule:evenodd;fill:#FFFFFF;fill-opacity:0;}
</style>
<title>ic_import</title>
<desc>Created with Sketch.</desc>
<path id="Combined-Shape" class="st0" d="M13.5,1C14.3,1,15,1.7,15,2.5v11c0,0.8-0.7,1.5-1.5,1.5h-11C1.7,15,1,14.3,1,13.5v-2
	C1,11.2,1.2,11,1.5,11S2,11.2,2,11.5v2C2,13.8,2.2,14,2.5,14h11c0.3,0,0.5-0.2,0.5-0.5v-11C14,2.2,13.8,2,13.5,2h-11
	C2.2,2,2,2.2,2,2.5v2C2,4.8,1.8,5,1.5,5S1,4.8,1,4.5v-2C1,1.7,1.7,1,2.5,1H13.5z M1,8c0-0.3,0.2-0.5,0.5-0.5h7.8L7.6,5.9
	c-0.2-0.2-0.2-0.5,0-0.7C7.8,5,8.2,5,8.4,5.1l2.5,2.5c0,0,0.1,0.1,0.1,0.2C11,7.9,11,8.1,11,8.2c0,0.1-0.1,0.1-0.1,0.2l-2.5,2.5
	C8.3,11,8.1,11,8,11c-0.1,0-0.3,0-0.4-0.1c-0.2-0.2-0.2-0.5,0-0.7l1.6-1.6H1.5C1.2,8.5,1,8.3,1,8z"/>
<rect id="Overlay" x="-18.2" y="-1.4" class="st1" width="16" height="16"/>
</svg>
